X: 31339
T: Paddy McMahon's
R: jig
M: 6/8
K: Dmajor
|:f3 edB|BAF AFE|DFA AF/G/A|BAF Ade|
f3 edB|BAF AFE|D3 AFA|Bdc d2z:|
|:f3 afe|dB/c/d BAF|BAF D3|BAF E3|
B/c/dB AFE|DFA BAF|Ade fc/a/f|edc d2z:|

